godot/editor/icons/Rect2.svg

<svg height="12" viewBox="0 0 16 12" width="16" xmlns="http://www.w3.org/2000/svg"><path d="m13 2v2h-1a3 3 0 0 0 -2.5 1.3457 3 3 0 0 0 -2.5-1.3457 3 3 0 0 0 -3 3 3 3 0 0 0 3 3h1v-2h-1a1 1 0 0 1 -1-1h3a3 3 0 0 0 3 3h1v-2h-1a1 1 0 0 1 -1-1 1 1 0 0 1 1-1h1v1a3 3 0 0 0 3 3v-2a1 1 0 0 1 -1-1v-1h1v-2h-1v-2zm-10 2a3 3 0 0 0 -3 3v3h2v-3a1 1 0 0 1 1-1h1v-2z" fill="#f1738f"/></svg>

<svg height="12" viewBox="0 0 16 12" width="16" xmlns="http://www.w3.org/2000/svg"><path d="M13 2v2h-1a3 3 0 0 0-2.5 1.346A3 3 0 1 0 7 10h1V8H7a1 1 0 0 1-1-1h3a3 3 0 0 0 3 3h1V8h-1a1 1 0 0 1 0-2h1v1a3 3 0 0 0 3 3V8a1 1 0 0 1-1-1V6h1V4h-1V2zM3 4a3 3 0 0 0-3 3v3h2V7a1 1 0 0 1 1-1h1V4z" fill="#f1738f"/></svg>
